src/symbols/av-symbol/25C0.svg

<?xml version="1.0" encoding="UTF-8"?>
<svg id="emoji" xmlns="http://www.w3.org/2000/svg" viewBox="0 0 72 72">
  <g id="grid">
    <path d="m68,4v64H4V4h64m4-4H0v72h72V0Z" fill="#b3b3b3"/>
    <path d="m12.923,10.9583h46.1539c1.0621,0,1.9231.861,1.9231,1.9231h0v46.1538c0,1.0621-.861,1.9231-1.9231,1.9231H12.9231c-1.0621,0-1.9231-.861-1.9231-1.9231h0V12.8813c0-1.062.861-1.923,1.923-1.923h0Z" fill="none" stroke="#00a5ff" stroke-miterlimit="10" stroke-width=".1"/>
    <rect x="16" y="4" width="40" height="64" rx="2.2537" ry="2.2537" fill="none" stroke="#00a5ff" stroke-miterlimit="10" stroke-width=".1"/>
    <rect x="4" y="16" width="64" height="40" rx="2.2537" ry="2.2537" fill="none" stroke="#00a5ff" stroke-miterlimit="10" stroke-width=".1"/>
    <circle cx="36" cy="36" r="29" fill="none" stroke="#00a5ff" stroke-miterlimit="10" stroke-width=".1"/>
  </g>
  <g id="color">
    <path d="m52.2125,16.9906c-.47-.1728-.9989-.288-1.5278-.288-.8227,0-1.6453.288-2.3504.7487l-29.0866,15.4928-.2938.288c-.7639.7487-1.1752,1.6702-1.1752,2.7069s.4113,2.0158,1.1752,2.7069l.2938.288,29.0866,15.608c1.0577.8063,2.5855.9791,3.8782.4607,1.4691-.5759,2.4091-2.0158,2.4091-3.5709v-30.8702c0-1.5551-.9402-2.9949-2.4091-3.5709Z" fill="#fff"/>
  </g>
  <g id="line">
    <path d="m52.6119,16.3937c-.4848-.1782-1.0303-.297-1.5758-.297-.8485,0-1.697.297-2.4242.7722l-30,15.9793-.303.297c-.7879.7722-1.2121,1.7227-1.2121,2.7919s.4242,2.0791,1.2121,2.7919l.303.297,30,16.0981c1.0909.8316,2.6667,1.0098,4,.4752,1.5152-.594,2.4848-2.0791,2.4848-3.683v-31.8396c0-1.6039-.9697-3.0889-2.4848-3.683Z" fill="none" stroke="#000" stroke-linejoin="round" stroke-width="2"/>
  </g>
</svg>

<svg id="emoji" viewBox="0 0 72 72" xmlns="http://www.w3.org/2000/svg">
  <g id="grid">
    <path fill="#b3b3b3" d="M68,4V68H4V4H68m4-4H0V72H72V0Z"/>
    <path fill="none" stroke="#00a5ff" stroke-miterlimit="10" stroke-width="0.1" d="M12.923,10.9583H59.0769A1.9231,1.9231,0,0,1,61,12.8814V59.0352a1.9231,1.9231,0,0,1-1.9231,1.9231H12.9231A1.9231,1.9231,0,0,1,11,59.0352V12.8813A1.923,1.923,0,0,1,12.923,10.9583Z"/>
    <rect x="16" y="4" rx="2.2537" width="40" height="64" fill="none" stroke="#00a5ff" stroke-miterlimit="10" stroke-width="0.1"/>
    <rect x="16" y="4" rx="2.2537" width="40" height="64" transform="translate(72) rotate(90)" fill="none" stroke="#00a5ff" stroke-miterlimit="10" stroke-width="0.1"/>
    <circle cx="36" cy="36" r="29" fill="none" stroke="#00a5ff" stroke-miterlimit="10" stroke-width="0.1"/>
  </g>
  <g id="color"/>
  <g id="hair"/>
  <g id="skin"/>
  <g id="skin-shadow"/>
  <g id="line">
    <path fill="none" stroke="#000000" stroke-linejoin="round" stroke-miterlimit="10" stroke-width="2" d="M52.6119,16.3937 c-0.4848-0.1782-1.0303-0.297-1.5758-0.297c-0.8485,0-1.697,0.297-2.4242,0.7722l-30,15.9793l-0.303,0.297 c-0.7879,0.7722-1.2121,1.7227-1.2121,2.7919c0,1.0692,0.4242,2.0791,1.2121,2.7919l0.303,0.297l30,16.0981 c1.0909,0.8316,2.6667,1.0098,4,0.4752c1.5152-0.594,2.4848-2.0791,2.4848-3.683V20.0767 C55.0967,18.4728,54.127,16.9878,52.6119,16.3937z"/>
  </g>
</svg>
